icon-svg/tesla-trunk.svg

<svg xmlns="http://www.w3.org/2000/svg" viewBox="0 0 24 24"><path fill="#44739e" d="m21.548 13.358-.248-.473.013-1.291c.005-.206.27-.022.339-.215l.255-.891c.34-.635-.577-1.621-.912-1.557l-3.267-.687a11.4 11.4 0 0 1-1.768-.525l-.267-.1 2.293-2.324a.816.816 0 0 1 1.322.135l.307.377a1.115 1.115 0 0 0 1.582.148.87.87 0 0 0 .078-1.254l-1.424-1.343a1.574 1.574 0 0 0-2.41 0l-3.67 3.514-5.249-2.034a5.9 5.9 0 0 0-2.139-.4H3.046a1.046 1.046 0 0 0 0 2.092H6.1a5.4 5.4 0 0 1 1.932.365l7.121 2.758a13.5 13.5 0 0 0 2.035.608l.652.14c.7.152 1.844.126 1.5.759l-.229.436.017 1.651.566.993a1.1 1.1 0 0 1 .306.755v.585a1.08 1.08 0 0 1-1.08 1.08h-1.152c.013-.129.028-.256.032-.387 0-.045.007-.088.007-.132a5.062 5.062 0 1 0-10.124 0v.085c0 .147.017.29.032.434H3.046a1.047 1.047 0 0 0 0 2.093h5.383a5.027 5.027 0 0 0 8.633 0h2.3c1.509 0 2.613-.681 2.613-2.189L22 14.32a1.8 1.8 0 0 0-.452-.962M10.2 16.233c0-.032-.01-.063-.01-.1a2.551 2.551 0 1 1 5.1 0c0 .041-.01.079-.012.12a2.5 2.5 0 0 1-.053.4 2.55 2.55 0 0 1-1.386 1.773 2.46 2.46 0 0 1-2.24-.023 2.57 2.57 0 0 1-1.4-2.173Z"/></svg>

<?xml version="1.0" encoding="UTF-8"?>
<svg width="24px" fill="#44739e" height="24px" viewBox="0 0 24 24" version="1.1" xmlns="http://www.w3.org/2000/svg" xmlns:xlink="http://www.w3.org/1999/xlink">
            <path d="M 21.548,13.363 21.3,12.89 21.313,11.599 c 0.005,-0.206 0.27,-0.022 0.339,-0.215 l 0.255,-0.891 C 22.247,9.858 21.33,8.872 20.995,8.936 L 17.728,8.249 A 11.357,11.357 0 0 1 15.96,7.724 L 15.693,7.624 17.986,5.3 a 0.816,0.816 0 0 1 1.322,0.135 l 0.307,0.377 A 1.115,1.115 0 0 0 21.197,5.96 0.87,0.87 0 0 0 21.275,4.706 L 19.851,3.363 a 1.574,1.574 0 0 0 -2.41,0 L 13.771,6.877 8.522,4.843 A 5.928,5.928 0 0 0 6.383,4.443 H 3.046 a 1.046,1.046 0 0 0 0,2.092 H 6.1 A 5.356,5.356 0 0 1 8.032,6.9 l 7.121,2.758 a 13.519,13.519 0 0 0 2.035,0.608 l 0.652,0.14 c 0.7,0.152 1.844,0.126 1.5,0.759 l -0.229,0.436 0.017,1.651 0.566,0.993 A 1.085,1.085 0 0 1 20,15 v 0.585 a 1.081,1.081 0 0 1 -1.08,1.08 h -1.152 c 0.013,-0.129 0.028,-0.256 0.032,-0.387 0,-0.045 0.007,-0.088 0.007,-0.132 a 5.062,5.062 0 1 0 -10.124,0 c 0,0.029 0,0.056 0,0.085 0,0.147 0.017,0.29 0.032,0.434 H 3.046 a 1.047,1.047 0 0 0 0,2.093 h 5.383 a 5.027,5.027 0 0 0 8.633,0 h 2.3 c 1.509,0 2.613,-0.681 2.613,-2.189 L 22,14.325 A 1.824,1.824 0 0 0 21.548,13.363 Z M 10.2,16.238 c 0,-0.032 -0.01,-0.063 -0.01,-0.1 a 2.551,2.551 0 1 1 5.1,0 c 0,0.041 -0.01,0.079 -0.012,0.12 a 2.5,2.5 0 0 1 -0.053,0.4 2.551,2.551 0 0 1 -1.386,1.773 2.455,2.455 0 0 1 -2.24,-0.023 2.574,2.574 0 0 1 -1.4,-2.173 z"/>

</svg>
